X: 1
T: Hambo fr\aan Arbr\aa
O: from 1970s Hambo video
S: handwritten transcription by JC
R: hambo
Z: 2021 John Chambers <jc:trillian.mit.edu>
P: (AA BB A CC)xN A
M: 3/4
L: 1/8
K: G	% and C
"^A"|:\
"G"(3d^cd e>d B>G | D>B, G,B, D>G | (3BAB c>B A>G | "Am"E2 E4 ||\
"D7"(3cBc d>c A>F | D>F Ad f>g |[1,3 a>g f>e d>c | "G"e>d BG D2 :|
[2,4 a>g fg a>f | "G"g2 g4 |][K:=f][K:C]\
"^B":: "C"G>E C2 E>G |\
c>B cd c>B | "Dm"A>F D2 F>G | A>G A_B A2 || "G"D<B, D2 B,>D |
[1,3 G>A Bc B>A | G>F DB, D>F | "C"A>G GE C2 :|\
[2,4 G>A Bc d>e | d>c Bc d>B | "C"c2 c4 \
"^C":: "C"G>E C2 E>G | c2 c4 | E>G c2 [cG]>[ec] | "C7"[g6e6] ||
[1,3 "Dm"f>g fe d>c | "G"B>A G4 | G2 GA G>F | "C"F>E ED C2 :|\
[2,4 "F"a>g fe f>a | "C"g>f ed c>e | "G7"d>B G>A B>c | (3dBd "C"c4 :|
%%text Middle beats with 2 even notes may be played long-short or short-long.

%%sep 1 1 500

